X:1
T:Froggy's First Jump
C:Dave Whetstone
S:Over the Water
A:Field Town
O:Oxon.
R:Reel
M:4/4
P:A(AB)4
K:G
P:A
d/e/d/c/ Bd cB Ac | BA GB AF/G/ A2 | d/e/d/c/ Bd cB Ac | BG EF G2 G2 |]
P:B
A/F/G/A/ BA GG GA | B/G/A/B/ ce d2 d2 | d2 c2 B2 Ac | B/A/G/F/ EF G2 G2 :|
